X:1
T:Willie Doo
B:50 Traditional Scottish Nursery Rhymes, 1933.
Z:Alfred Moffat
L:1/8
Q:1/4=120
M:3/4
F:/songs
K:Bb
G|GA B3 d|ee d4|cB G4|cB G3
w:O where hae ye been a' the day, Wil-lie Doo, Wil-lie Doo?
G|GA B3 d|ee d4|(f2 d2) cB|G4 z|]
w:I've been to see my step-mi-ther, Die_ shall I now!
